X:1
T:Title
%%score { ( 1 3 ) | ( 2 4 ) }
L:1/8
M:4/4
K:Bb
V:1 treble nm="Grand Piano"
V:3 treble 
V:2 bass 
V:4 bass 
V:1
 z4 z2[Q:1/4=100] [B,D][CE] | [DF]2 [DF]2 [EG][GB][FA]G | FGFE D2 [DF][EG] | FEEE E2 EF | %4
 EDDD D2 D[CE] | [DF]2 [DF]2 [EG][GB][FA]G | FGFE D2 [DB][FA] | [EG]2 [Ec][GB] A2 dc | %8
[M:3/4] B2- [EB-][EB-] [DB]2 |[M:1/4] [Fd][Ge] |[M:4/4] d2 c2 F2 cd | [Ec]2 [DB]2 [DF]2 [DF][EG] | %12
 F2 E2 AGFE | D[CE][DF][EG] [DF]2 [Fd][Ge] | d2 c2 F2 cd | [Ec]2 [DB]2 [DF]2 [DB][FA] | %16
 [EG]2 [Ec][GB] A2 dc |[M:3/4] B2- [EB-][EB-] [DB]2 |] %18
V:2
 z4 z2 [B,,F,][B,,F,] | [B,,B,]2 [B,,B,]2 [E,B,][E,B,][E,B,][E,B,E] | %2
 [F,B,D][F,B,E][F,A,D][F,A,C] [B,,B,]2 [B,,B,][B,,B,] | %3
 [F,A,D][F,A,C][F,A,C][F,A,C] [F,A,C]2 [F,A,C][F,A,D] | %4
 [B,,B,C][B,,F,B,][B,,F,B,][B,,F,B,] [B,,F,B,]2 [B,,F,B,][B,,F,] | %5
 [B,,B,]2 [B,,B,]2 [E,B,][E,B,][E,B,][E,B,E] | %6
 [F,B,D][F,B,E][F,A,D][F,A,C] [B,,B,]2 [B,,B,][D,B,] | [E,B,]2 [E,G,][E,C] [F,CF]2 [F,A,F][F,A,E] | %8
[M:3/4] z2 G,G, F,2 |[M:1/4] [B,,B,][B,,B,] |[M:4/4] [F,A,F]2 [F,A,E]2 [F,A,E]2 [F,A,E][F,A,F] | %11
 [B,,B,]2 [B,,B,]2 [B,,B,]2 [B,,B,][B,,B,] | [F,A,D]2 [F,A,C]2 FE[F,A,D][F,A,C] | %13
 [B,,F,B,][B,,F,][B,,B,][B,,B,] [B,,B,]2 [B,,B,][B,,B,] | %14
 [F,A,F]2 [F,A,E]2 [F,A,E]2 [F,A,E][F,A,F] | [B,,B,]2 [B,,B,]2 [B,,B,]2 [B,,B,][D,B,] | %16
 [E,B,]2 [E,G,][E,C] [F,CF]2 [F,A,F][F,A,E] |[M:3/4] z2 G,G, F,2 |] %18
V:3
 x8 | x8 | x8 | x8 | x8 | x8 | x8 | x8 |[M:3/4] [B,D]2 z2 z2 |[M:1/4] x2 |[M:4/4] x8 | x8 | x8 | %13
 x8 | x8 | x8 | x8 |[M:3/4] [B,D]2 z2 z2 |] %18
V:4
 x8 | x8 | x8 | x8 | x8 | x8 | x8 | x8 |[M:3/4] B,,6 |[M:1/4] x2 |[M:4/4] x8 | x8 | z4 [F,C]2 z2 | %13
 x8 | x8 | x8 | x8 |[M:3/4] B,,6 |] %18

